X: 42704
T: Whistlin' In The Rain
R: jig
M: 6/8
K: Gmajor
|:EGG BGG|AGA Bdd|egg edB|AGA BGD|
EGG BGG|AGA Bdd|BAG EDE|GAG G3:|
|:ged BGA|BGA Bde|geg dga|bag a3|
~g3 ede|ged B2A|BAB dBG|ABA G3:|

